!!!COM:	Bach, Johann Sebastian
!!!OMV:	O Gott, du frommer Gott
!!!OTL:	O Gott, du frommer Gott
**kern	**fb	**kern	**kern	**kern	**kern
*part5	*part5	*part4	*part3	*part2	*part1
*staff5	*	*staff4	*staff3	*staff2	*staff1
*I"Continuo	*	*I"Voice	*I"Voice	*I"Voice	*I"Voice
*I'Cont.	*	*I'V	*I'V	*I'V	*I'V
*clefF4	*	*clefF4	*clefGv2	*clefG2	*clefG2
*Trd0c0	*	*	*	*	*
*k[f#]	*	*k[f#]	*k[f#]	*k[f#]	*k[f#]
*M3/4	*	*M3/4	*M3/4	*M3/4	*M3/4
=	=	=	=	=	=
4GG	.	4GG	2B	2d	2g
4BB	6	4BB	.	.	.
4D	.	4D	4F#	4d	4a
=3	=3	=3	=3	=3	=3
2G	.	2G	2G	2d	2b
4F#	6	4F#	4A	4d	4a
=4	=4	=4	=4	=4	=4
4C#X	6 5	4C#X	4A	4e	4g
4D	.	4D	4A	4d	4f#
4AA	#	4AA	4A	4c#X	4e
=5	=5	=5	=5	=5	=5
2.D;	.	2.D;	2.F#;	2.A;	2.d;
=6	=6	=6	=6	=6	=6
2E	5	2E	2B	2e	2g
4D	.	4D	4d	4f#	4a
=7	=7	=7	=7	=7	=7
4G	.	4G	2d	2g	2b
4F#	.	4F#	.	.	.
4E	6	4E	4c	4g	4cc
=8	=8	=8	=8	=8	=8
4D	6 4	4D	4d	2g	4b
4C	6 5 3	4C	4e	.	2a
4D	5 3	4D	4d	4f#	.
=9	=9	=9	=9	=9	=9
2.GG;	.	2.GG;	2.B;	2.d;	2.g;
=10:|!	=10:|!	=10:|!	=10:|!	=10:|!	=10:|!
4G	.	4G	2d	2g	2b
4F#	.	4F#	.	.	.
4E	6	4E	4e	4g	4cc
=11	=11	=11	=11	=11	=11
4D	.	4D	2A	4f#	2dd
4E	.	4E	.	4g	.
4F#	6 5	4F#	4d	4a	4cc
=12	=12	=12	=12	=12	=12
4G	.	4G	4d	2g	4b
4C	6 5	4C	4e	.	2a
4D	.	4D	4d	4f#	.
=13	=13	=13	=13	=13	=13
2.GG;	.	2.GG;	2.d;	2.g;	2.b;
=14	=14	=14	=14	=14	=14
!!linebreak:original
4G	.	4G	4B	2g	2dd
4A	.	4A	4c	.	.
4B	.	4B	4d	4g	4dd
=15	=15	=15	=15	=15	=15
4c	8	4c	4c	2g	2ee
4C	7	4C	4B	.	.
4D	.	4D	4A	4f#	4dd
=16	=16	=16	=16	=16	=16
8EL	6	8EL	4e	4g	4cc
8F#J	.	8F#J	.	.	.
4G	.	4G	2d	2g	2b
4GG	.	4GG	.	.	.
=17	=17	=17	=17	=17	=17
2.D;	.	2.D;	2.d;	2.f#;	2.a;
=18	=18	=18	=18	=18	=18
2G	.	2G	2d	2g	4b
.	.	.	.	.	4cc
4F#	6	4F#	4d	4a	4dd
=19	=19	=19	=19	=19	=19
2E	6	2E	4G	2g	2cc
.	.	.	4A	.	.
4D#X	6	4D#X	4B	4f#	4b
=20	=20	=20	=20	=20	=20
4E	.	4E	2B	2e	2g
4D	.	4Dn	.	.	.
4C	6	4C	4A	4e	4a
=21	=21	=21	=21	=21	=21
2.BB	6 4	2.BB	4G	4e	2.b
.	5 #	.	4F#	8d#XL	.
.	.	.	.	8c#XJ	.
.	.	.	4B	4d#	.
=22	=22	=22	=22	=22	=22
2.E;	.	2.E;	2.B;	2.e;	2.g;
=23	=23	=23	=23	=23	=23
2G	8	2G	2B	4dn	4b
.	.	.	.	4e	4cc
4GG	nr7	4GG	4B	4fn	4dd
=24	=24	=24	=24	=24	=24
2AA	5	2AA	2c	4e	2cc
.	#6\	.	.	4f#X	.
4BB	.	4BB	4d	4g	4b
=25	=25	=25	=25	=25	=25
!!pagebreak:original
4C	6 4 2	4C	2d	4f#	4a
4BB	6	4BB	.	[2g	2b
4C	.	4C	4e	.	.
=26	=26	=26	=26	=26	=26
2.D	4	2.D	4A	4g]	2.a
.	3	.	4B	8f#L	.
.	.	.	.	8eJ	.
.	.	.	4c	4f#	.
=27	=27	=27	=27	=27	=27
2.GG;	.	2.GG;	2.B;	2.d;	2.g;
=||	=||	=||	=||	=||	=||
*-	*-	*-	*-	*-	*-
!!!system-decoration: s1,s2,s3,s4,s5
